img/icons/stuff-icon4.svg

<svg width="36" height="36" viewBox="0 0 36 36" fill="none" xmlns="http://www.w3.org/2000/svg">
<path fill-rule="evenodd" clip-rule="evenodd" d="M3 18C3 26.2843 9.71573 33 18 33C26.2843 33 33 26.2843 33 18C33 9.71573 26.2843 3 18 3C9.71573 3 3 9.71573 3 18ZM6 18C6 11.3726 11.3726 6 18 6C24.6274 6 30 11.3726 30 18C30 24.6274 24.6274 30 18 30C11.3726 30 6 24.6274 6 18ZM13.5 19.5C13.5 18.6716 12.8284 18 12 18C11.1716 18 10.5 18.6716 10.5 19.5C10.5 23.6421 13.8579 27 18 27C22.1421 27 25.5 23.6421 25.5 19.5C25.5 18.6716 24.8284 18 24 18C23.1716 18 22.5 18.6716 22.5 19.5C22.5 21.9853 20.4853 24 18 24C15.5147 24 13.5 21.9853 13.5 19.5ZM12 15C12.8284 15 13.5 14.3284 13.5 13.5C13.5 14.3284 14.1716 15 15 15C15.8284 15 16.5 14.3284 16.5 13.5C16.5 11.8431 15.1569 10.5 13.5 10.5C11.8431 10.5 10.5 11.8431 10.5 13.5C10.5 14.3284 11.1716 15 12 15ZM22.5 13.5C22.5 14.3284 21.8284 15 21 15C20.1716 15 19.5 14.3284 19.5 13.5C19.5 11.8431 20.8431 10.5 22.5 10.5C24.1569 10.5 25.5 11.8431 25.5 13.5C25.5 14.3284 24.8284 15 24 15C23.1716 15 22.5 14.3284 22.5 13.5Z" fill="#E3000F"/>
</svg>

<svg width="36" height="36" fill="none" xmlns="http://www.w3.org/2000/svg"><path fill-rule="evenodd" clip-rule="evenodd" d="M3 18c0 8.284 6.716 15 15 15 8.284 0 15-6.716 15-15 0-8.284-6.716-15-15-15C9.716 3 3 9.716 3 18zm3 0c0-6.627 5.373-12 12-12s12 5.373 12 12-5.373 12-12 12S6 24.627 6 18zm7.5 1.5a1.5 1.5 0 00-3 0 7.5 7.5 0 0015 0 1.5 1.5 0 00-3 0 4.5 4.5 0 11-9 0zM12 15a1.5 1.5 0 001.5-1.5 1.5 1.5 0 003 0 3 3 0 10-6 0A1.5 1.5 0 0012 15zm10.5-1.5a1.5 1.5 0 01-3 0 3 3 0 116 0 1.5 1.5 0 01-3 0z" fill="#E3000F"/></svg>
